!!!!SEGMENT: pl-wn--sd-xvi-qu-273--134_gomolka-mikolaj--teraz-o-wierni-panscy-sluzebnicy.krn
!!!cenid: 15xx:339
!!!COM: Gomółka, Mikołaj
!!!COM-rismid: pe30013343
!!!CDT: ~1535->1591/04/30
!!!CNT: Polish
!!!GTL: Melodiae na psalterz polski
!!!OTL: CXXXIV. Teraz, o wierni Pańscy służebnicy,
!!!PDT: 1580
!!!AGN: Sacred
!!!SMS-siglum: PL-Wn
!!!SMS-shelfmark: SD XVI.Qu.273
!!!SMS-shelfwork: 134 G
!!!NIFC-rismid:
!!!ONB-nifc: Melodiae na psalterz polski 
**kern	**text	**text	**kern	**text	**text	**kern	**text	**text	**kern	**text	**text
*part4	*part4	*part4	*part3	*part3	*part3	*part2	*part2	*part2	*part1	*part1	*part1
*staff4	*staff4	*staff4	*staff3	*staff3	*staff3	*staff2	*staff2	*staff2	*staff1	*staff1	*staff1
*clefF3	*	*	*clefC3	*	*	*clefC3	*	*	*clefC1	*	*
*k[]	*	*	*k[]	*	*	*k[]	*	*	*k[]	*	*
*C:	*	*	*C:	*	*	*C:	*	*	*C:	*	*
*M4/2	*	*	*M4/2	*	*	*M4/2	*	*	*M4/2	*	*
*met(C|)	*	*	*met(C|)	*	*	*met(C|)	*	*	*met(C|)	*	*
*>[A,A,B,B]	*	*	*	*	*	*	*	*	*	*	*
=1	=1	=1	=1	=1	=1	=1	=1	=1	=1	=1	=1
*>A	*	*	*	*	*	*	*	*	*	*	*
1G	Te-	Któ-	1B	Te-	Któ-	1g	Te-	Któ-	1b	Te-	Któ-
2G	-raӡ/	-rӡy	2B	-raӡ/	-rӡy	2g	-raӡ/	-rӡy	2b	-raӡ/	-rӡy
2G	o	trӡy-	2B	o	trӡy-	2d	o	trӡy-	2dd	o	trӡy-
=2-	=2	=2	=2	=2	=2	=2	=2	=2	=2	=2	=2
2C	wier-	-(ma-	2c/	wier-	-(ma-	2e	wier-	-(ma-	2.cc	wier-	-(ma-
2F/	-ni	-cie)	2.c/	-ni	-cie)	2f	-ni	-cie)	.	.	.
.	.	.	.	.	.	.	.	.	4b	-ni	-cie)
2F/	páń-	ʃtraʒ̇	.	.	.	2f	páń-	ʃtraʒ̇	2a	páń-	ʃtraʒ̇
.	.	.	4A	páń-	ʃtraʒ̇	.	.	.	.	.	.
2E	-ʃcy	w	2B	-ʃcy	w	4g	-ʃcy	w	2g/	-ʃci	w
.	.	.	.	.	.	4f	.	.	.	.	.
=3-	=3	=3	=3	=3	=3	=3	=3	=3	=3	=3	=3
2C	ʃłu-	iego	4c/	ʃłu	iego	4e	ʃłu	iego	4a	ʃłu	iego
.	.	.	4B	.	.	4d	.	.	4g	.	.
2E	-ʒ̇eb-	bóʒ̇-	4B	ʒ̇eb	bóʒ̇	2c/	ʒ̇eb	bóʒ̇-	1g	ʒ̇eb-	bóʒ̇-
.	.	.	8AL	.	.	.	.	.	.	.	.
.	.	.	8GJ	.	.	.	.	.	.	.	.
1D	-ni-	-n(i-	1A	ni-	n(i-	2.d	ni	-n(i	.	.	.
.	.	.	.	.	.	.	.	.	2f	-ni-	-n(i-
.	.	.	.	.	.	4c/	.	.	.	.	.
=4-	=4	=4	=4	=4	=4	=4	=4	=4	=4	=4	=4
2G	-cy	-cy)	2G	-cy	-cy)	2B	cy	cy)	2g/	-cy	-cy)
=:!:	=:!:	=	=	=	=	=	=	=	=	=	=
=-	=	=	=	=	=	=	=	=	=	=	=
*>B	*	*	*	*	*	*	*	*	*	*	*
2C	Te-	.	2c/	Te-	.	4g	Te	.	2e	Te-	.
.	.	.	.	.	.	4f	.	.	.	.	.
2C	-(raz)	.	2c/	-(raz)	.	4e	(raz)	.	2e	-(raz)	.
.	.	.	.	.	.	4d	.	.	.	.	.
2E	iá-	.	2G	iá-	.	2c/	iá	.	2g/	iá-	.
=5-	=5	=5	=5	=5	=5	=5	=5	=5	=5	=5	=5
2D	-ťo	.	2A	-ťo	.	2.d	ťo	.	2.f	-ťo	.
2D	to	.	2A	to	.	.	.	.	.	.	.
.	.	.	.	.	.	4c/	to	.	4e	to	.
2.G	noc	.	2B	noc	.	4B	noc	.	2d	noc	.
.	.	.	.	.	.	4A	.	.	.	.	.
.	.	.	2.B	m(il	.	2G	m(il-	.	2d	m(il-	.
4F	m(il-	.	.	.	.	.	.	.	.	.	.
=6-	=6	=6	=6	=6	=6	=6	=6	=6	=6	=6	=6
2E	-cӡy)	.	.	.	.	2G	-cӡy)	.	2e	-cӡy)	.
.	.	.	4c/	cӡy)	.	.	.	.	.	.	.
1D	wiecӡ-	.	1d	wiecӡ-	.	1A	wiecӡ-	.	1f#X	wiecӡ-	.
2D	-ne-	.	2d	-ne-	.	2A	-ne-	.	2f#	-ne-	.
!!LO:PB:g=original
=7-	=7	=7	=7	=7	=7	=7	=7	=7	=7	=7	=7
2G	-mu	.	2d	-mu	.	2B	-mu	.	2g/	-mu	.
1C	Chwa-	.	1e	Chwa-	.	1g	Chwa-	.	1cc	Chwa-	.
2G	-łę	.	4d	-łę	.	2g	-łę	.	2b	-łę	.
.	.	.	4e	.	.	.	.	.	.	.	.
=8-	=8	=8	=8	=8	=8	=8	=8	=8	=8	=8	=8
2D	od-	.	4f	od	.	2a	od-	.	2.dd	od-	.
.	.	.	4e	.	.	.	.	.	.	.	.
2.G	-day-	.	2d	day	.	2g	-day-	.	.	.	.
.	.	.	.	.	.	.	.	.	4cc	-day-	.
.	.	.	2G	ćie	.	2.g	-ćie	.	4b	-ćie	.
4F/	-ćie	.	.	.	.	.	.	.	4a	.	.
4E	win	.	2G	win-	.	.	.	.	2g/	win-	.
4D	.	.	.	.	.	4f	win-	.	.	.	.
=9-	=9	=9	=9	=9	=9	=9	=9	=9	=9	=9	=9
2C	ną	.	2G	-ną	.	2e	-ną	.	2.cc	-ną	.
1F	bo_gu	.	2.A	bo-	.	1f	bo_gu	.	.	.	.
.	.	.	.	.	.	.	.	.	4b	bo-	.
.	.	.	.	.	.	.	.	.	2a	-gu	.
.	.	.	4G	-gu	.	.	.	.	.	.	.
2F/	ʃwe-	.	4A	ʃwe	.	2f	ʃwe-	.	2a	ʃwe-	.
.	.	.	4B	.	.	.	.	.	.	.	.
=10-	=10	=10	=10	=10	=10	=10	=10	=10	=10	=10	=10
!!LO:N:vis=00
0C/	-mu.	.	0c	mu.	.	0e	-mu.	.	0g	-mu.	.
=	==	==	==	==	==	==	==	==	==	==	==
*-	*-	*-	*-	*-	*-	*-	*-	*-	*-	*-	*-
!!!RDF**kern: l = terminal long
!!!system-decoration: s1,s2,s3,s4
!!!ENC:Anna Matuszewska
!!!END:2020-02-22
!!!URL-scan: https://polona.pl/item/melodiae-na-psalterz-polski,Nzk3MTM4ODQ/313 Scan on Polona
!!!IIIF: https://polona.pl/iiif/item/Nzk3MTM4ODQ/manifest.json
